X:1
T:Jay tant voulu
T:Antoine Gardane
T:Source : Livre XXV de 28 chansons nouvelles à 4 parties---Paris---P.Attaingnant---1547. Editor : AndréVierendeels (24/07/18) Notes : Original clefs : C1, C3, C4, F4 Original note values have been halved Editorial accidentals above the staff Square bracket indicates ligature 
T:#
T:Jay tant voulu
T:©
T:©
T:©
C:Antoine Gardane
Z:©
%%score [ 1 [ 2 3 ] 4 ]
L:1/8
Q:1/4=120
M:2/2
K:C
V:1 treble nm="Alto" snm="A"
V:2 treble-8 nm="Tenor 1" snm="T 1"
V:3 treble-8 nm="Tenor 2" snm="T 2"
V:4 bass nm="Bass" snm="B"
V:1
 D4 F4- | F4 G4 | A4 z2 A2 | A2 A2 c2 B2- | BA A4 G2 | A2 E2 F2 F2 | G4 z2 G2 | A3 G F2 GF | %8
w: Jay tant|_ vou-|lu ce|que nay pu a-||voir, que plus ne|puis ne|vou- * loir en- *|
w: Ce peu|_ de|bien que|ie pou- vois sca-||voir, ie lay u-|sé pour|bien me fai- r'en- *|
"^#" ED D4 C2 | D8 :| E4 G2 F2 | D2 F2 F2 F2 | G2 A3 GFE | FEDC D4 | C8 | E4 E2 E2 | F4 G4 | %17
w: * * tre- pren-|dre,|et si nay|pu ne sceu fai-|re com- * * *|* * * * pren-|dre,|que vray a-|mour deust|
w: * * ten- *|dre,||||||||
 A4 F2 G2- | GF F4 E2 | F4 z2 F2 | F2 E2 D2 D2 | C2 C2 F4- | F4 G4 | A4 z2 A2 | c4 c4 | A8 | %26
w: a- mour at-|* * ti- *|rer, si|n'a il point te-|nu à sous-|* pi-|rer, n'a|me dou-|loir|
w: |||||||||
 A4 A2 A2 | FGAB cA B2- | BA A4 G2 | A8 |: F4 G2 G2 | E4 C4 | D6 D2 | F4 G4 | A2 F2 F2 F2 | %35
w: de mes pei-|nes _ _ _ _ _ per-|* * du- *|es,|par quoy mon|cueur, las|de tant|de- si-|rer, com- me vain-|
w: |||||||||
 E2 A2 A2 B2 | cBAG F2 E2- | ED D4 C2 | D8 :| %39
w: cu, a les ar-|mes _ _ _ _ ren-|* * du- *|es.|
w: ||||
V:2
 A4 d4- | d4 d4 | e4 f4 | f2 f2 e2 g2- | gfed e4 | z2 c2 d2 d2 | B2 B2 e3 d | e2 e2 d3 c | %8
w: Jay tant|_ vou-|lu ce|que nay pu a-||que plus ne|puis, ne vou _|_ loir en- tre|
w: Ce peu|_ de|bien que|ie pou- vois sca-|* * * * voir,|ie lay u-|sé pour bien _|_ me fai- *|
 B2 G2 A4 | A8 :| c4 c2 A2 | B2 d2 d2 d2 | e2 e2 d3 c | B2 A4 G2 | A4 z2 G2 | c2 c2 B4 | d4 e4 | %17
w: pren- * *|dre,|et si nay|pu ne sceu faire|com- pren- * *||dre, que|vray a- mour|deust a-|
w: r'en- * ten-|dre,||||||||
 f3 e dc c2- | c2 B2 c4 | z2 A2 A2 F2 | c2 c2 A4- | A4 F4 |"^b""^b" B4 B4 | A2 F2 c3 d | e2 f4 e2 | %25
w: mour _ _ _ at-|* ti- rer,|si n'a il|point te- nu|_ à|sous- pi-|rer, n'a me _|_ dou- *|
w: ||||||||
 f2 c2 c2 c2 | A4 c4 | d2 e3 d B2 | c2 d2 e4 | c8 |: d4 d2 d2 | c4 A4 | A3 G A2 B2 | %33
w: loir, de mes pei-|nes per-|du- * * *||es,|par quoy mon|cueur, las|de _ _ tant|
w: ||||||||
 A3 G/F/ c2 c2 | c4 z2 c2 | c2 c2 A2 G2 | A2 A2 B2 c2- | cBAG A4 | A8 :| %39
w: de- * * * si-|rer, com-|me vai- cu, a|les ar- mes ren-|* * * * du-|es.|
w: ||||||
V:3
 D4 A4- | A4 B4 | c4 A4 | d4 c2 d2- | dcBA B2 B2 | A4 z2 A2 | d2 d2 G2 G2 | c3 B A2 G2- | GFED E4 | %9
w: Jay tant|_ vou-|lu ce|que nay pu|_ _ _ _ _ a-|voir, que|plus ne puis ne|vou- loir en- tre-|* * * * pren-|
w: Ce peu|_ de|bien que|ie pou- vois|_ _ _ _ _ sca-|voir, ie|lay u- sé pour|bien me fai- r'en-|* * * * ten-|
 D8 :| G4 E2 F2 | G2 A2 A2 A2 | c2 c2 A3 G | F2 E4 D2 | E8 | G4 G2 G2 | A4 c4 | c3 B A2 G2 | %18
w: dre,|et si nay|pu ne seu fai-|re com- pren- *||dre,|que vray a-|mour deust|a- * * mour|
w: dre,|||||||||
 A2 GF G2 G2 | F4 z2 A2 | A2 G2 F2 F2 | E2 C2 D3 C | DE F4 E2 | F2 A2 A4- | A2 GF G2 G2 | %25
w: at- * * * ti-|rer, si|n'a il point te-|nu à sous- *|* * * pi-|rer, n'a me|_ _ _ _ dou-|
w: |||||||
 F4 z2 c2 | c2 c2 A4- | A2 c4 d2- | dcBA B4 | A8 |: A4 B2 B2 | A4 E4 | F6 G2- | GF F4 E2 | %34
w: loir de|mes pei- nes|_ per du-||es,|par quoy mon|cueur, las|de tant-|* * de- si-|
w: |||||||||
 F2 A2 A2 A2 | G2 E2 F2 D2 | E2 F3 G A2 | G2 F2 E4 | D8 :| %39
w: rer, com- me vain-|cu, a les ar-|mes ren- * *|* * du-|es.|
w: |||||
V:4
 D,8 | D,4 B,,4 | A,,2 A,2 F,2 D,2- | D,E,F,G, A,2 G,2- | G,A, F,2 E,4 | z2 A,,2 D,2 D,2 | %6
w: Jay|tant vou-|lu ce que nay|_ _ _ _ _ pu-|* * a- voir,|que plus ne|
w: Ce|peu de|bien que ie pou-|* * * * * vois|_ _ sca- voir,|ie lay u-|
 G,,2 G,,2 C,3 B,, | A,,2 C,2 D,2 G,,2- | G,,A,, B,,2 A,,4 | D,8 :| C,4 C,2 D,2 | %11
w: puis, ne vou- *|* loir en- tre-|* * * pren-|dre,|et si nay|
w: sé pour bien _|_ me fai- r'en-|* * * ten-|dre,||
 G,,2 D,2 D,2 D,2 | C,2 A,,2 D,4- | D,2 C,2 B,,4 | A,,4 C,4- | C,2 C,2 E,4 | D,4 z2 C,2 | F,6 E,2 | %18
w: pu ne seu fai-|re com- pren-||dre, que|_ vray a-|mour deust|a- mour|
w: |||||||
 F,2 D,2 C,4 | z2 D,2 D,2 D,2 | C,2 C,2 D,4 |"^b" A,,4 B,,4- | B,,2 A,,2 G,,4 | F,,4 z2 F,,2 | %24
w: at- ti- rer,|si n'a il|point te- nu|à sous-|* pi- *|rer, n'a|
w: ||||||
 C,4 C,4 | F,,4 F,4 | F,6 F,2 | D,2 A,4 G,2 | F,4 E,4 | A,,8 |: D,4 G,,2 G,,2 | A,,4 A,,4 | %32
w: me dou-|loir de|mes pei-|nes per- *|du- *|es,|par quoy mon|cueur, las|
w: ||||||||
 D,6 G,,2 |"^#" D,2 D,2 C,4 | z2 F,2 F,2 F,2 | C,2 C,2 D,2 B,,2 | A,,2 D,4 C,2- | C,2 D,2 A,,4 | %38
w: de tant|de- si- rer,|com- me vain-|cu, a les ar-|mes ren- *|* * du-|
w: ||||||
 D,8 :| %39
w: es.|
w: |

